X:1
T:Sanctus
T:Johannes Ockeghem (ca. 1410-1497)
T:The first 2 lines of the sanctus section with the mass
T:Sanctus
T:Canon 4 in 2
T:Copyright © 
C:Johannes Ockeghem (ca. 1410-1497)
Z:The first 2 lines of the sanctus
Z:section with the mass
Z:Copyright ©
%%score [ 1 2 3 4 ]
L:1/8
M:4/4
K:F
V:1 treble nm="Soprano" snm="S."
V:2 treble-8 transpose=-12 nm="Tenor" snm="T."
V:3 treble-8 transpose=-12 nm="Tenor" snm="T."
V:4 treble-8 transpose=-12 nm="Tenor" snm="T."
V:1
 (F4 C4 | F4) A4 | z2 E2 F4 | (E2 C2) C2 z2 | (F4 G3 E) | (E2 F3) A>Bc | BA/B/ c2 z2 A2 | %7
w: Sanc- *|* tus,|sanc- *|* * tus,|sanc- * *||* * * tus, do-|
 (F2 G2) F2 E2 | C4 c2 Bd- | dc/B/ A6 | F2 F F2 E/D/ C2 | z F2 G (A2 B2-) | BG x2- x4- A8 |] %13
w: mi- * * nus|de- * * *|* * * us|sa- * ba- * * oth,|sa- ba- oth. _|_ _ _ _ _|
V:2
 F6 C2- | C4 F4- | F2 A6 | z2 E4 F2- | F4 (E2 C2) | C2 z2 F4 | G3 E (E2 F2- | F) A>Bc BA/B/ c2 | %8
w: Sanc- *||* tus,|sanc- *||tus, sanc-|* * tus, _|_ do- * * * * mi- nis|
 z2 A2 (F2 G2) | F2 E2 C4 | c2 B d2 c/B/ A2- | A4 F2 FF- | FE/D/ C2 z F2 G A8 |] %13
w: de- * *|* * us|sa- ba- * * * oth,|_ sa- * ba-|* * * oth, sa- ba- oth.|
V:3
 F6 A2- | A F3 c4- | c2 A3 F3 | C4 c2- c2 | A2- A2 G4 | (A2 F2 c2) d2 | d2 c4 (F2 | %7
w: Sanc- *|* tus, sanc-||tus, sanc- *|||* tus, do-|
 A2) G>F (D2 A2- | A)B (c2 A2) z B- | BA cA F4 | F2 B,4 F2- | F A2 B c2 d2- | dB x2- x4- c8 |] %13
w: * * * mi- *|* * nus _ de-|* * * * us,|de- * us|_ sa- ba- * *|* * * * oth.|
V:4
 F8- | F A2- A F4- | F2 c4- c2- | c2- c A2 A F2- | F2 F2 C4 | c2- c2 A2- A2 | G4 (A2 F2 | %7
w: Sanc-||||* * tus,|sanc- * * *|tus, do- *|
 c2) d2 d2 c2- | c2 (F2 A2) G>F | %9
w: * * mi- *|* nus _ _ _|
"^Source: Erotemata Musices Practicæ, etc. edited by Ambrosius Wilphlingsderus" (D2 A3) B c2 | %10
w: de- * * *|
 A2 z B2 A c2 | F4- F2 B,2- | B,2 x2- x4- F8 |] %13
w: us sa- ba- oth,|sa- * ba-|* * * oth.|

